X: 11822
M: 6/8
L: 1/8
K: G
|:\
|:\
gdB gdB | cec dBG | gdB gdB | A/A/AA A2f |\
gdB gdB | cec dBG | cec BdB | G/G/GG G3 :|


